demos/KANBAN/public/icons/Store.svg

<svg width="24" height="24" viewBox="0 0 24 24" fill="none" xmlns="http://www.w3.org/2000/svg">
<path d="M11.0229 17.8548H9.64879C9.55723 17.8548 9.49609 17.9159 9.49609 18.0075C9.49609 18.099 9.55723 18.1602 9.64879 18.1602H11.0229C11.1144 18.1602 11.1756 18.099 11.1756 18.0075C11.1756 17.9311 11.0993 17.8548 11.0229 17.8548Z" fill="currentColor" />
<path d="M19.6773 2.84641C19.2276 2.39664 18.63 2.1492 17.9934 2.1492L6.56615 2.14893C5.92962 2.14893 5.33236 2.39636 4.88227 2.84613C4.43249 3.29591 4.18506 3.89346 4.18506 4.53002V19.7678C4.18506 20.4044 4.43249 21.0016 4.88227 21.4517C5.33204 21.9015 5.92959 22.1489 6.56615 22.1489H17.9949C18.6314 22.1489 19.2287 21.9015 19.6788 21.4517C20.1285 21.0019 20.376 20.4044 20.376 19.7678V4.53002C20.3748 3.89376 20.1274 3.29623 19.6776 2.84642L19.6773 2.84641ZM19.4229 19.7686C19.4229 20.5566 18.7825 21.197 17.9946 21.197H6.56585C5.77788 21.197 5.13747 20.5566 5.13747 19.7686V4.53008C5.13747 3.74211 5.7779 3.10171 6.56585 3.10171H17.9946C18.7825 3.10171 19.4229 3.74214 19.4229 4.53008V19.7686Z" fill="currentColor" />
<path d="M10.0385 10.86L8.47036 12.4284L7.85498 11.813C7.66934 11.6274 7.36707 11.6274 7.18171 11.813C6.99607 11.9987 6.99607 12.301 7.18171 12.4863L8.13442 13.439C8.22431 13.5289 8.34483 13.5787 8.47147 13.5787C8.59811 13.5787 8.71891 13.5289 8.80853 13.439L10.7136 11.5339C10.8993 11.3483 10.8993 11.046 10.7136 10.8606C10.528 10.6747 10.2238 10.6736 10.0384 10.8601L10.0385 10.86Z" fill="currentColor" />
<path d="M10.0385 15.621L8.47036 17.1891L7.85498 16.5738C7.66934 16.3881 7.36707 16.3881 7.18171 16.5738C6.99607 16.7594 6.99607 17.0617 7.18171 17.247L8.13442 18.1997C8.22431 18.2896 8.34483 18.3395 8.47147 18.3395C8.59811 18.3395 8.71891 18.2896 8.80853 18.1997L10.7136 16.2946C10.8993 16.109 10.8993 15.8067 10.7136 15.6213C10.528 15.4354 10.2238 15.4354 10.0384 15.6211L10.0385 15.621Z" fill="currentColor" />
<path d="M10.0385 6.09758L8.47036 7.66568L7.85498 7.0503C7.66934 6.86466 7.36707 6.86466 7.18171 7.0503C6.99607 7.23595 6.99607 7.53821 7.18171 7.72357L8.13442 8.67627C8.22431 8.76617 8.34483 8.81599 8.47147 8.81599C8.59811 8.81599 8.71891 8.76617 8.80853 8.67627L10.7136 6.77116C10.8993 6.58551 10.8993 6.28325 10.7136 6.09789C10.528 5.91224 10.2238 5.91224 10.0384 6.09761L10.0385 6.09758Z" fill="currentColor" />
<path d="M17.0425 11.673H12.2804C12.0171 11.673 11.8044 11.8865 11.8044 12.149C11.8044 12.4114 12.0179 12.6249 12.2804 12.6249H17.0425C17.3058 12.6249 17.5185 12.4114 17.5185 12.149C17.5185 11.8857 17.305 11.673 17.0425 11.673Z" fill="currentColor" />
<path d="M17.0425 17.3874H12.2804C12.0171 17.3874 11.8044 17.6009 11.8044 17.8633C11.8044 18.1258 12.0179 18.3393 12.2804 18.3393H17.0425C17.3058 18.3393 17.5185 18.1258 17.5185 17.8633C17.5185 17.6009 17.305 17.3874 17.0425 17.3874Z" fill="currentColor" />
<path d="M17.0425 6.91058H12.2804C12.0171 6.91058 11.8044 7.12406 11.8044 7.38652C11.8044 7.64898 12.0179 7.86246 12.2804 7.86246H17.0425C17.3058 7.86246 17.5185 7.64898 17.5185 7.38652C17.5185 7.12406 17.305 6.91058 17.0425 6.91058Z" fill="currentColor" />
<path d="M11.0229 18.9233H9.64879C9.55723 18.9233 9.49609 18.9844 9.49609 19.076C9.49609 19.1675 9.55723 19.2287 9.64879 19.2287H11.0229C11.1144 19.2287 11.1756 19.1675 11.1756 19.076C11.1756 18.9844 11.0993 18.9233 11.0229 18.9233Z" fill="currentColor" />
</svg>

<svg xmlns="http://www.w3.org/2000/svg" width="24" height="24" fill="none"><path fill="currentColor" d="M11.023 17.855H9.649c-.092 0-.153.06-.153.152s.061.153.153.153h1.374c.091 0 .153-.061.153-.152a.164.164 0 0 0-.153-.153Z"/><path fill="currentColor" d="M19.677 2.846a2.365 2.365 0 0 0-1.684-.697H6.566c-.636 0-1.234.247-1.684.697a2.365 2.365 0 0 0-.697 1.684v15.238c0 .636.247 1.234.697 1.684.45.45 1.048.697 1.684.697h11.429c.636 0 1.234-.248 1.684-.697.45-.45.697-1.048.697-1.684V4.53a2.37 2.37 0 0 0-.698-1.684Zm-.254 16.923a1.43 1.43 0 0 1-1.428 1.428H6.565a1.43 1.43 0 0 1-1.428-1.428V4.53c0-.788.64-1.428 1.429-1.428h11.429c.787 0 1.428.64 1.428 1.428V19.77Z"/><path fill="currentColor" d="M10.039 10.86 8.47 12.428l-.615-.615a.477.477 0 0 0-.673.673l.952.953a.475.475 0 0 0 .675 0l1.905-1.905a.477.477 0 1 0-.676-.674ZM10.039 15.621 8.47 17.189l-.615-.615a.476.476 0 0 0-.673.673l.952.953a.475.475 0 0 0 .675 0l1.905-1.905a.477.477 0 1 0-.676-.674ZM10.039 6.098 8.47 7.666l-.615-.616a.477.477 0 0 0-.673.674l.952.952a.475.475 0 0 0 .675 0l1.905-1.905a.476.476 0 1 0-.676-.673ZM17.043 11.673H12.28a.476.476 0 1 0 0 .952h4.763a.476.476 0 1 0 0-.952ZM17.043 17.387H12.28a.476.476 0 1 0 0 .952h4.763a.476.476 0 1 0 0-.952ZM17.043 6.91H12.28a.476.476 0 1 0 0 .952h4.763a.476.476 0 1 0 0-.951ZM11.023 18.923H9.649c-.092 0-.153.061-.153.153 0 .091.061.153.153.153h1.374c.091 0 .153-.061.153-.153a.153.153 0 0 0-.153-.153Z"/></svg>
